rospo-icon-theme-classic-common/24x24/places/folder-magenta-apple.svg

<svg height="24" width="24" xmlns="http://www.w3.org/2000/svg"><rect height="12" opacity=".2" rx="1" width="20" x="2" y="9.5"/><path d="m2 17c0 .554.446 1 1 1h18c .554 0 1-.446 1-1v-11c0-.554-.446-1-1-1h-10v-1c0-.554-.446-1-1-1h-7c-.554 0-1 .446-1 1" fill="#b259b8"/><rect height="12" opacity=".2" rx="1" width="20" x="2" y="8.5"/><rect fill="#e4e4e4" height="8" rx="1" width="16" x="4" y="7"/><rect fill="#ca71df" height="12" rx="1" width="20" x="2" y="9"/><path d="m3 3c-.554 0-1 .446-1 1v .5c0-.554.446-1 1-1h7c .554 0 1 .446 1 1v-.5c0-.554-.446-1-1-1zm8 2v .5h10c .554 0 1 .446 1 1v-.5c0-.554-.446-1-1-1z" fill="#fff" opacity=".1"/><path d="m13.989 11c-.497.018-1.098.287-1.454.653-.319.325-.598.843-.523 1.34.554.038 1.118-.247 1.463-.613.345-.367.577-.872.514-1.38zm-.45 2.003c-.623-.062-.914.363-1.23.363s-.804-.353-1.32-.343c-.679.01-1.3071.389-1.6567.99-.7055 1.21-.1798 3.003.5078 3.984.3359.48.7469 1.003 1.2639 1.003s.698-.327 1.31-.327c.613 0 .479.327 1.02.327s.791-.503 1.125-.985c.386-.557.441-1.015.441-1.015s-.992-.512-1.002-1.708c-.01-1.001 1.002-1.506 1.002-1.506-.47-.679-1.2-.772-1.461-.783z" fill="#47274e"/></svg>

<svg xmlns="http://www.w3.org/2000/svg" width="24" height="24" version="1">
 <rect style="opacity:0.2" width="20" height="12" x="2" y="9.5" rx="1" ry="1"/>
 <path style="fill:#b259b8" d="M 2,17 C 2,17.554 2.446,18 3,18 H 21 C 21.554,18 22,17.554 22,17 V 6 C 22,5.446 21.554,5 21,5 H 11 V 4 C 11,3.446 10.554,3 10,3 H 3 C 2.446,3 2,3.446 2,4"/>
 <rect style="opacity:0.2" width="20" height="12" x="2" y="8.5" rx="1" ry="1"/>
 <rect style="fill:#dcdcdc" width="16" height="8" x="4" y="7" rx="1" ry="1"/>
 <rect style="fill:#ca71df" width="20" height="12" x="2" y="9" rx="1" ry="1"/>
 <path style="opacity:0.1;fill:#ffffff" d="M 3,3 C 2.446,3 2,3.446 2,4 V 4.5 C 2,3.946 2.446,3.5 3,3.5 H 10 C 10.554,3.5 11,3.946 11,4.5 V 4 C 11,3.446 10.554,3 10,3 Z M 11,5 V 5.5 H 21 C 21.554,5.5 22,5.946 22,6.5 V 6 C 22,5.446 21.554,5 21,5 Z"/>
 <path style="fill:#47274e" d="M 13.989,11 C 13.492,11.018 12.891,11.287 12.535,11.653 12.216,11.978 11.937,12.496 12.012,12.993 12.566,13.031 13.13,12.746 13.475,12.38 13.82,12.013 14.052,11.508 13.989,11 Z M 13.539,13.003 C 12.916,12.941 12.625,13.366 12.309,13.366 11.993,13.366 11.505,13.013 10.989,13.023 10.31,13.033 9.6819,13.412 9.3323,14.013 8.6268,15.223 9.1525,17.016 9.8401,17.997 10.176,18.477 10.587,19 11.104,19 11.621,19 11.802,18.673 12.414,18.673 13.027,18.673 12.893,19 13.434,19 13.975,19 14.225,18.497 14.559,18.015 14.945,17.458 15,17 15,17 15,17 14.008,16.488 13.998,15.292 13.988,14.291 15,13.786 15,13.786 14.53,13.107 13.8,13.014 13.539,13.003 Z"/>
</svg>
